app/assets/images/heroicons/micro/squares-2x2.svg

<svg width="16" height="16" viewBox="0 0 16 16" fill="none" xmlns="http://www.w3.org/2000/svg">
<path d="M3.5 2C2.67157 2 2 2.67157 2 3.5V5.5C2 6.32843 2.67157 7 3.5 7H5.5C6.32843 7 7 6.32843 7 5.5V3.5C7 2.67157 6.32843 2 5.5 2H3.5Z" fill="black"/>
<path d="M3.5 9C2.67157 9 2 9.67157 2 10.5V12.5C2 13.3284 2.67157 14 3.5 14H5.5C6.32843 14 7 13.3284 7 12.5V10.5C7 9.67157 6.32843 9 5.5 9H3.5Z" fill="black"/>
<path d="M9 3.5C9 2.67157 9.67157 2 10.5 2H12.5C13.3284 2 14 2.67157 14 3.5V5.5C14 6.32843 13.3284 7 12.5 7H10.5C9.67157 7 9 6.32843 9 5.5V3.5Z" fill="black"/>
<path d="M10.5 9C9.67157 9 9 9.67157 9 10.5V12.5C9 13.3284 9.67157 14 10.5 14H12.5C13.3284 14 14 13.3284 14 12.5V10.5C14 9.67157 13.3284 9 12.5 9H10.5Z" fill="black"/>
</svg>

<svg xmlns="http://www.w3.org/2000/svg" viewBox="0 0 16 16" fill="currentColor" aria-hidden="true" data-slot="icon">
  <path d="M3.5 2A1.5 1.5 0 0 0 2 3.5v2A1.5 1.5 0 0 0 3.5 7h2A1.5 1.5 0 0 0 7 5.5v-2A1.5 1.5 0 0 0 5.5 2h-2ZM3.5 9A1.5 1.5 0 0 0 2 10.5v2A1.5 1.5 0 0 0 3.5 14h2A1.5 1.5 0 0 0 7 12.5v-2A1.5 1.5 0 0 0 5.5 9h-2ZM9 3.5A1.5 1.5 0 0 1 10.5 2h2A1.5 1.5 0 0 1 14 3.5v2A1.5 1.5 0 0 1 12.5 7h-2A1.5 1.5 0 0 1 9 5.5v-2ZM10.5 9A1.5 1.5 0 0 0 9 10.5v2a1.5 1.5 0 0 0 1.5 1.5h2a1.5 1.5 0 0 0 1.5-1.5v-2A1.5 1.5 0 0 0 12.5 9h-2Z"/>
</svg>
